icons/chevron-circle-right.svg

<svg width="24" height="24" viewBox="0 0 24 24" fill="none" xmlns="http://www.w3.org/2000/svg">
<path fill-rule="evenodd" clip-rule="evenodd" d="M20.25 12C20.25 7.44365 16.5563 3.75 12 3.75C7.44365 3.75 3.75 7.44365 3.75 12C3.75 16.5563 7.44365 20.25 12 20.25C16.5563 20.25 20.25 16.5563 20.25 12ZM12 2.25C17.3848 2.25 21.75 6.61522 21.75 12C21.75 17.3848 17.3848 21.75 12 21.75C6.61522 21.75 2.25 17.3848 2.25 12C2.25 6.61522 6.61522 2.25 12 2.25Z" fill="black"/>
<path fill-rule="evenodd" clip-rule="evenodd" d="M9.75715 7.81964C10.05 7.52675 10.5249 7.52675 10.8178 7.81965L14.0178 11.0196C14.0178 11.0196 14.0178 11.0196 14.0178 11.0196C14.2826 11.2844 14.4625 11.6423 14.4625 12.0375C14.4625 12.4205 14.2902 12.7804 13.9761 13.022L10.8178 16.1803C10.5249 16.4732 10.05 16.4732 9.75715 16.1803C9.46425 15.8874 9.46425 15.4125 9.75714 15.1196L12.8768 12L9.75714 8.8803C9.46425 8.58741 9.46425 8.11254 9.75715 7.81964ZM12.9743 12.1007C12.9742 12.1007 12.9739 12.1002 12.9734 12.0992L12.9743 12.1007Z" fill="black"/>
</svg>

<svg xmlns="http://www.w3.org/2000/svg" fill="none" viewBox="0 0 24 24">
  <path fill="#000" fill-rule="evenodd" d="M20.25 12a8.25 8.25 0 1 0-16.5 0 8.25 8.25 0 0 0 16.5 0ZM12 2.25c5.385 0 9.75 4.365 9.75 9.75s-4.365 9.75-9.75 9.75S2.25 17.385 2.25 12 6.615 2.25 12 2.25Z" clip-rule="evenodd"/>
  <path fill="#000" fill-rule="evenodd" d="M9.757 7.82a.75.75 0 0 1 1.06 0l3.2 3.2c.266.264.446.622.446 1.018 0 .383-.173.742-.487.984l-3.158 3.158a.75.75 0 1 1-1.06-1.06L12.876 12l-3.12-3.12a.75.75 0 0 1 0-1.06Zm3.217 4.28Z" clip-rule="evenodd"/>
</svg>
